X:1
T:James Gibb editions
T:Quando mirai - Antonelli da Rimini
%%score [ 1 2 3 ]
L:1/8
Q:1/4=108
M:2/2
K:Bb
V:1 treble-8 nm="Tenor I" snm="T I"
V:2 treble-8 nm="Tenor II" snm="T II"
V:3 bass nm="Bass" snm="B"
V:1
"^Quando mirai""^Cornelio Antonelli da Rimini\n(C16th )" A4 A3 c | d2 =e2 f2 g2 | =e2 d2 e4 | d8 | %4
w: Quan- do mi-|rai la bel- la|fac- cia d'o-|ro|
w: Ren- di- mi~~il|co- re~~O la- dra|del mio co-|re|
 z2 c2 c2 c2 |[M:2/2][K:treble-8] (dcBc dcde) | d4 c3 A | B2 c2 A4 | =B4 z4 | d2 dd d2 g2 | %10
w: Cost' oc- chi|la\- * * * * * * *|dri mi ru-|bas- ti~~il cuo-|re|Dam- mi lo cor' O|
w: Ren- di- mi~~il|co\- * * * * * * *|re~~ahi- mè che|tu fai be-|ne|Che non si può sal-|
 f3 =e d2 c2 | B4 A4- | A2 c2 B3 d | B2 B2 A4 | =B8 :| %15
w: la- dra del mio|co- re,|* O la- dra|del mio co-|re.|
w: var chi l'al- trui|tie- ne,|* sal- var chi|l'al- trui tie-|ne.|
V:2
 ^F4 F3 A | B2 c2 d2 d2 | c2 d2 (d2 ^c2) | d8 | z2 A2 A2 A2 |[M:2/2][K:treble-8] F8 | B4 A3 ^F | %7
w: Quan- do mi-|rai la bel- la|fac- cia d'o\- *|ro|Cost' oc- chi|la-|dri mi ru-|
w: Ren- di- mi~~il|co- re~~O la- dra|del mio co\- *|re|Ren- di- mi~~il|co-|re~~ahi- mè che|
 G2 G2 (G2 ^F2) | G4 z4 | B2 AA B2 [GB]2 | A3 A A2 A2 | G4 ^F4- | F2 A2 G3 ^F | G2 G2 (G2 ^F2) | %14
w: bas- ti~~il cuo\- *|re|Dam- mi lo cor' O|la- dra del mio|co- re,|* O la- dra|del mio co\- *|
w: tu fai be\- *|ne|Che non si può sal-|var chi l'al- trui|tie- ne,|* sal- var chi|l'al- trui tie\- *|
 G8 :| %15
w: re.|
w: ne.|
V:3
 D,4 D,3 F, | G,2 A,2 B,2 G,2 | A,2 B,2 A,4 | [D,A,]8 | z2 F,2 F,2 F,2 |[M:2/2] B,,8 | %6
w: Quan- do mi-|rai la bel- la|fac- cia d'o-|ro|Cost' oc- chi|la-|
w: Ren- di- mi~~il|co- re~~O la- dra|del mio co-|re|Ren- di- mi~~il|co-|
 (B,,C,D,E,) F,3 D, | E,2 C,2 D,4 | G,,4 z4 | G,2 ^F,F, G,2 E,2 | D,3 D, D,2 F,2 | %11
w: dri * * * mi ru-|bas- ti~~il cuo-|re|Dam- mi lo cor' O|la- dra del mio|
w: re~~ahi\- * * * mè che|tu fai be-|ne|Che non si può sal-|var chi l'al- trui|
 (G,2 G,,2) D,4- | D,2 F,2 G,2 D,2 | E,2 E,2 D,4 | G,,8 :| %15
w: co\- * re,|* o la- dra|del mio co-|re.|
w: tie\- * ne,|* sal- var chi|l'al- trui tie-|ne.|

